actions/24/media-seek-backward-symbolic.svg

<?xml version="1.0" encoding="UTF-8" standalone="no"?>
<svg
   xmlns:dc="http://purl.org/dc/elements/1.1/"
   xmlns:cc="http://creativecommons.org/ns#"
   xmlns:rdf="http://www.w3.org/1999/02/22-rdf-syntax-ns#"
   xmlns:svg="http://www.w3.org/2000/svg"
   xmlns="http://www.w3.org/2000/svg"
   id="svg6"
   version="1.1"
   width="24"
   height="24">
  <metadata
     id="metadata12">
    <rdf:RDF>
      <cc:Work
         rdf:about="">
        <dc:format>image/svg+xml</dc:format>
        <dc:type
           rdf:resource="http://purl.org/dc/dcmitype/StillImage" />
        <dc:title></dc:title>
      </cc:Work>
    </rdf:RDF>
  </metadata>
  <defs
     id="defs10" />
  <path
     d="m 20.000492,6 c 0.552285,0 1,0.4477153 1,1 v 10 c 0,0.552285 -0.447715,1 -1,1 -0.16845,0 -0.319727,-0.05144 -0.458984,-0.125 L 12.000492,13.128906 V 17 c 0,0.552285 -0.447715,1 -1,1 -0.16845,0 -0.319727,-0.05144 -0.458984,-0.125 L 2.544922,12.876953 C 2.225497,12.71 2,12.385392 2,12 2,11.614608 2.225497,11.29 2.544922,11.123047 L 10.541508,6.125 C 10.680765,6.0514361 10.832042,6 11.000492,6 c 0.552285,0 1,0.4477153 1,1 v 3.871094 L 19.541508,6.125 C 19.680765,6.0514361 19.832042,6 20.000492,6 Z"
     style="font-variation-settings:normal;opacity:1;vector-effect:none;fill:#555761;fill-opacity:1;stroke:none;stroke-width:4;stroke-linecap:round;stroke-linejoin:round;stroke-miterlimit:4;stroke-dasharray:none;stroke-dashoffset:0;stroke-opacity:1;stop-color:#000000;stop-opacity:1"
     id="path980-3" />
</svg>

<svg
        xmlns='http://www.w3.org/2000/svg'
        xmlns:svg='http://www.w3.org/2000/svg'
        id='svg6'
        width='24'
        height='24'>
  <path
          id='path980-3'
          opacity='1'
          fill='url(#gpa:foreground) #555761'
          fill-opacity='1'
          fill-rule='nonzero'
          stroke='none'
          stroke-opacity='1'
          stroke-width='4'
          stroke-linecap='round'
          stroke-linejoin='round'
          stroke-miterlimit='4'
          stroke-dasharray='none'
          stroke-dashoffset='0'
          d='M 20.0005 6 C 20.5528 6, 21.0005 6.44772, 21.0005 7 L 21.0005 17 C 21.0005 17.5523, 20.5528 18, 20.0005 18 C 19.832 18, 19.6808 17.9486, 19.5415 17.875 L 12.0005 13.1289 L 12.0005 17 C 12.0005 17.5523, 11.5528 18, 11.0005 18 C 10.832 18, 10.6808 17.9486, 10.5415 17.875 L 2.54492 12.877 C 2.2255 12.71, 2 12.3854, 2 12 C 2 11.6146, 2.2255 11.29, 2.54492 11.123 L 10.5415 6.125 C 10.6808 6.05144, 10.832 6, 11.0005 6 C 11.5528 6, 12.0005 6.44772, 12.0005 7 L 12.0005 10.8711 L 19.5415 6.125 C 19.6808 6.05144, 19.832 6, 20.0005 6 Z'
          class="foreground">
  </path>
</svg>
